svg/free/columns.svg

<svg version="1.1" xmlns="http://www.w3.org/2000/svg" width="24" height="24" viewBox="0 0 24 24">
<title>columns</title>
<path d="M22.125 2.25h-20.25c-0.621 0.001-1.124 0.504-1.125 1.125v17.625c0.001 0.621 0.504 1.124 1.125 1.125h20.25c0.621-0.001 1.124-0.504 1.125-1.125v-17.625c-0.001-0.621-0.504-1.124-1.125-1.125h-0zM21.75 3.75v3h-19.5v-3zM2.25 8.25h9v12.375h-9zM12.75 20.625v-12.375h9v12.375z"></path>
</svg>

<svg xmlns="http://www.w3.org/2000/svg" width="24" height="24" viewBox="0 0 24 24"><path d="M22.125 2.25H1.875A1.127 1.127 0 00.75 3.375V21a1.127 1.127 0 001.125 1.125h20.25A1.127 1.127 0 0023.25 21V3.375a1.127 1.127 0 00-1.125-1.125zm-.375 1.5v3H2.25v-3zm-19.5 4.5h9v12.375h-9zm10.5 12.375V8.25h9v12.375z"/></svg>
